X:87
T:Baille de Los Pollos (CT 363) 
R:Panderu
C:Tradicional
S:Msica Tradicional Asturiana, (C) Tello & Tito. Asturies, 2001.
S:http://pagina.de/MusTradAst <telloytito@asturies.org>
N:Cancin de Baille de Los Pollos, transcrita en Llanuces, ayuntamiento de Quirs.
A:Asturies
O:Llanuces (Quiros)
Z:Cancioneru de Torner 363
M:2/4
L:1/8
Q:1/4=160
K:G
|d2 dd|d2 Ac|B2 A2|
d2 dd|d2 Ac|(B2 A2)|
B2 AG|A2 GF|ED EF|
GF ED|(E2 D2)|GG GA|B2 AA|G4||
W:-A la falda
W:un ringo-rango
W:
W:y al mandil
W:un rodapi;
W:
W:chele ust
W:un ringo-rango.
W:
W:-Ringo-rango
W:yo lo ech.
W:-Ol, madamita, y ol!
W:
